X:1
T:Centralia Waltz
L:1/8
M:3/4
I:linebreak $
K:G
V:1 treble
V:1
 D2 G2 || B2 D3 B |"C" c2 E3 c |"G" B3 d BG | D3 B, DG |$ F4- FF | E2 C3 E | EE D2 G2 | B,4 DG |$ %9
 B2 D2 B | c2 E3 c | B3 d BG | D3 B, DG |$ F4 FF | EC E2 F2 | A2 G3 G | G6 || %17
